!!!OTL: Han wo qingge chi huoshao
!!!ARE: Asia, China,ÿHubei, Jiangling
!! I, 445
!!!SCT: C1453
!!!YEM: Copyright 1995, estate of Helmut Schaffrath.
**kern
*ICvox
*Ivox
!! Irregular meter.
*MX
*k[b-e-a-]
*E-:
{8g
16g
16b-
8.b-
16cc
8ff
8ff
4cc
4r}
=1
{8ee-
8cc
8ff
16ee-
16cc
4b-
8cc
2ff
8ff
=2
8ee-
16ee-
16ff
4cc
4r}
=3
{4b-
4ff
8ee-
8cc
8b-
4.b-
=4
8ee-
8cc
8b-
8cc
4ff
4ee-
2cc}
{16g
16b-
16cc
16ee-
=5
16g
16b-
16g
16b-}
{16cc
16b-
16g
16b-
=6
16cc
16b-
16cc
16ee-}
{16cc
16ee-
16g
16b-
=7
16g
16b-
16cc
16ee-}
{16g
16b-
16b-
16r
=8
16cc
16b-
16cc
16ee-}
{16g
16b-
16g
16b-
=9
16cc
16b-
16cc
16ee-}
{16cc
16b-
16b-
16r
=10
16cc
16b-
16cc
16ee-}
{16cc
32b-
32b-
16g
16cc
=11
8b-
8b-}
{4.b-
8g
4ff
8cc
[8ff
4.ff]
8ff
=12
16ee-
16ff
16ee-
16cc
4cc
4r}
=13
{4b-
4ff
16ff
16ee-
16cc
[16b-
8b-]
4.b-
4r
=14
8ee-
8cc
8b-
8cc
4ff
4ee-
2cc}
==
!!!AGN: Shange, Ganwuju
!!!ONB: ESAC (Essen Associative Code) Database: HUANG
!!!AMT: irregular
!!!AIN: vox
!!!EED: Helmut Schaffrath
!!!EEV: 1.0
*-
